vendor/shopware/storefront/Resources/app/storefront/dist/assets/icon/default/text-table.svg

<svg xmlns="http://www.w3.org/2000/svg" width="24" height="24" viewBox="0 0 24 24">
  <path fill="#758CA3" fill-rule="evenodd" d="M7,13 L2,13 L2,11 L7,11 L7,2 L9,2 L9,11 L15,11 L15,2 L17,2 L17,11 L22,11 L22,13 L17,13 L17,22 L15,22 L15,13 L9,13 L9,22 L7,22 L7,13 Z M3,0 L21,0 C22.6568542,1.3235398e-16 24,1.34314575 24,3 L24,21 C24,22.6568542 22.6568542,24 21,24 L3,24 C1.34314575,24 2.02906125e-16,22.6568542 0,21 L0,3 C-2.02906125e-16,1.34314575 1.34314575,1.1851685e-15 3,0 Z M3,2 C2.44771525,2 2,2.44771525 2,3 L2,21 C2,21.5522847 2.44771525,22 3,22 L21,22 C21.5522847,22 22,21.5522847 22,21 L22,3 C22,2.44771525 21.5522847,2 21,2 L3,2 Z"/>
</svg>

<svg xmlns="http://www.w3.org/2000/svg" width="24" height="24" viewBox="0 0 24 24"><path fill="#758CA3" fill-rule="evenodd" d="M7 13H2v-2h5V2h2v9h6V2h2v9h5v2h-5v9h-2v-9H9v9H7v-9zM3 0h18c1.6569 0 3 1.3431 3 3v18c0 1.6569-1.3431 3-3 3H3c-1.6569 0-3-1.3431-3-3V3c0-1.6569 1.3431-3 3-3zm0 2c-.5523 0-1 .4477-1 1v18c0 .5523.4477 1 1 1h18c.5523 0 1-.4477 1-1V3c0-.5523-.4477-1-1-1H3z"/></svg>
